assets/Vitality.CUBE
#Created by: Adobe Photoshop Export Color Lookup Plugin
TITLE "Vitality"
#LUT size
LUT_3D_SIZE 8
#data domain
#LUT data points
DOMAIN_MIN 0.000000 0.000000 0.000000
DOMAIN_MAX 0.903226 0.903226 0.903226
0.100616 0.091461 0.091461
0.150818 0.089905 0.089539
0.270264 0.083252 0.075836
0.428101 0.089447 0.063629
0.623840 0.100098 0.046997
0.787201 0.111267 0.019958
0.915344 0.118347 0.000000
0.982300 0.119110 0.000000
0.096497 0.141449 0.085999
0.154144 0.141479 0.084076
0.263275 0.144043 0.074524
0.418915 0.153320 0.062073
0.614655 0.166901 0.044098
0.781464 0.176270 0.010132
0.911987 0.178589 0.000000
0.982300 0.177032 0.000000
0.080383 0.260742 0.065277
0.157959 0.260376 0.064514
0.276001 0.259064 0.061554
0.404297 0.258057 0.056122
0.582367 0.275269 0.037170
0.759735 0.292694 0.000000
0.899414 0.294373 0.000000
0.982300 0.289307 0.000000
0.069916 0.432251 0.041168
0.161255 0.432037 0.039490
0.299927 0.433167 0.034241
0.450958 0.432709 0.025543
0.600525 0.427521 0.000000
0.718231 0.411072 0.000000
0.875671 0.426666 0.000000
0.982300 0.425446 0.000000
0.038239 0.639832 0.000000
0.156982 0.639435 0.000000
0.314545 0.638794 0.000000
0.483276 0.637207 0.000000
0.648041 0.632690 0.000000
0.775177 0.611267 0.000000
0.869507 0.576630 0.000000
0.982300 0.567596 0.000000
0.000000 0.798218 0.000000
0.133575 0.797607 0.000000
0.303406 0.795837 0.000000
0.477203 0.793243 0.000000
0.646149 0.788544 0.000000
0.793488 0.782166 0.000000
0.909515 0.758667 0.000000
0.982300 0.720825 0.000000
0.000000 0.921478 0.000000
0.100800 0.920929 0.000000
0.282532 0.919098 0.000000
0.454865 0.916077 0.000000
0.624756 0.912079 0.000000
0.772369 0.905731 0.000000
0.905731 0.898285 0.000000
0.982300 0.872955 0.000000
0.000000 0.981567 0.000000
0.026581 0.981567 0.000000
0.255676 0.981567 0.000000
0.421967 0.981567 0.000000
0.587433 0.981567 0.000000
0.733154 0.981567 0.000000
0.862671 0.981567 0.000000
0.982025 0.977448 0.000000
0.097717 0.086670 0.143524
0.154694 0.084045 0.142456
0.276123 0.063019 0.139435
0.441833 0.051880 0.128326
0.636658 0.052216 0.115082
0.794861 0.058563 0.096008
0.919617 0.065704 0.070831
0.982330 0.080139 0.043976
0.091553 0.143311 0.142975
0.152496 0.140869 0.140869
0.273621 0.132538 0.129974
0.433868 0.128448 0.114288
0.628448 0.133240 0.099152
0.789276 0.140320 0.083466
0.916229 0.146362 0.065155
0.982300 0.151520 0.033142
0.065094 0.261414 0.138306
0.135681 0.263245 0.119690
0.277527 0.260651 0.116638
0.407227 0.251495 0.107880
0.596161 0.267151 0.090607
0.768188 0.277985 0.071808
0.903809 0.279419 0.047363
0.982300 0.276184 0.013306
0.024689 0.432953 0.130859
0.122589 0.435364 0.101288
0.290100 0.435852 0.098114
0.452332 0.434540 0.092194
0.601562 0.422363 0.076263
0.727386 0.408752 0.049652
0.880157 0.420746 0.013306
0.982300 0.417480 0.013306
0.000000 0.641296 0.087677
0.103607 0.641602 0.065643
0.298004 0.640411 0.060547
0.478027 0.638458 0.048218
0.648193 0.633240 0.014862
0.774811 0.608398 0.013306
0.868866 0.571686 0.013306
0.982300 0.563354 0.013306
0.000000 0.799103 0.019318
0.079559 0.798523 0.013275
0.288422 0.796570 0.013275
0.470032 0.793854 0.013275
0.643616 0.789032 0.013275
0.793335 0.782349 0.013275
0.909119 0.756897 0.013275
0.982300 0.718018 0.013306
0.000000 0.922058 0.019318
0.016510 0.921509 0.013275
0.268738 0.919586 0.013275
0.447662 0.916504 0.013275
0.621277 0.912354 0.013275
0.771057 0.905884 0.013275
0.905579 0.898346 0.013275
0.982300 0.871948 0.013275
0.000000 0.981567 0.019318
0.016510 0.981567 0.013275
0.244690 0.981567 0.013275
0.415985 0.981567 0.013275
0.584290 0.981567 0.013275
0.731445 0.981567 0.013275
0.861877 0.981567 0.013275
0.981781 0.977417 0.013275
0.093201 0.069305 0.266602
0.163116 0.065216 0.266022
0.278839 0.057892 0.263489
0.449005 0.025299 0.278168
0.657013 0.000000 0.278992
0.817383 0.000000 0.250671
0.932770 0.000000 0.235291
0.982300 0.000000 0.220612
0.065979 0.137299 0.265564
0.140961 0.121674 0.266907
0.279663 0.119934 0.263794
0.451630 0.097504 0.269287
0.658142 0.013336 0.266174
0.812622 0.013306 0.243958
0.929504 0.013306 0.230164
0.982330 0.053040 0.211792
0.060150 0.264069 0.262695
0.127350 0.265228 0.264557
0.273712 0.258759 0.258759
0.446869 0.241791 0.239868
0.639862 0.225220 0.215881
0.794556 0.218719 0.199005
0.918213 0.215759 0.185028
0.982391 0.213531 0.171722
0.000031 0.433258 0.275543
0.093170 0.436646 0.266235
0.242981 0.442841 0.224060
0.456207 0.438904 0.218475
0.601959 0.403046 0.196106
0.756348 0.396362 0.174500
0.895508 0.393372 0.160980
0.982391 0.384949 0.147705
0.000000 0.641815 0.276794
0.015503 0.642578 0.265625
0.222076 0.646606 0.200409
0.456329 0.644196 0.196716
0.651001 0.636841 0.189880
0.773804 0.596069 0.168213
0.866425 0.551636 0.127655
0.982361 0.547577 0.104248
0.000000 0.799774 0.254395
0.015503 0.799896 0.241638
0.210999 0.800140 0.185272
0.439819 0.796814 0.182129
0.634308 0.791779 0.177124
0.794037 0.783905 0.168396
0.907379 0.749969 0.142303
0.982330 0.707550 0.069397
0.000000 0.922638 0.226410
0.015503 0.922363 0.216827
0.204407 0.921051 0.174469
0.419556 0.917786 0.171478
0.608459 0.913361 0.167664
0.766296 0.906799 0.159363
0.905182 0.898682 0.147980
0.982361 0.868195 0.117737
0.000000 0.981567 0.204132
0.015503 0.981567 0.201447
0.198547 0.981689 0.165985
0.395020 0.981689 0.163025
0.573151 0.981659 0.158844
0.725891 0.981659 0.152252
0.859131 0.981659 0.138397
0.980804 0.977142 0.117004
0.106659 0.054688 0.447144
0.178833 0.049042 0.446564
0.306915 0.033722 0.444946
0.457764 0.000031 0.442352
0.658203 0.000000 0.465851
0.814331 0.000000 0.453430
0.936768 0.000000 0.430695
0.982300 0.000000 0.416870
0.061279 0.127167 0.446533
0.145355 0.109680 0.447693
0.297119 0.101288 0.446198
0.459351 0.086945 0.443726
0.658569 0.013306 0.461670
0.814362 0.013306 0.448303
0.936401 0.013306 0.427734
0.982330 0.091797 0.415009
0.000031 0.280975 0.443268
0.091675 0.270294 0.445557
0.250580 0.229126 0.449402
0.461700 0.222015 0.445251
0.661987 0.200714 0.441833
0.815063 0.192780 0.424896
0.934906 0.209747 0.412415
0.982452 0.217285 0.392883
0.000000 0.442657 0.440338
0.064056 0.443329 0.441437
0.228485 0.446198 0.445343
0.451752 0.436584 0.436584
0.649933 0.411682 0.410614
0.797913 0.387115 0.383148
0.917694 0.367645 0.359650
0.982574 0.353363 0.340210
0.000000 0.642426 0.456268
0.015503 0.643005 0.452728
0.196930 0.647095 0.434418
0.414917 0.649567 0.396240
0.654724 0.641144 0.389496
0.767548 0.573883 0.343201
0.884796 0.536865 0.300934
0.982544 0.522797 0.288361
0.000000 0.799652 0.442963
0.015503 0.799652 0.438202
0.186249 0.800201 0.415680
0.398987 0.799866 0.379578
0.622925 0.795471 0.377106
0.796051 0.786652 0.367950
0.902039 0.736847 0.322876
0.982483 0.684174 0.243225
0.000000 0.922180 0.418335
0.015503 0.921814 0.415283
0.190826 0.920624 0.397217
0.390778 0.917938 0.370667
0.595642 0.913727 0.368164
0.761383 0.907806 0.362091
0.905090 0.899567 0.351868
0.982605 0.860565 0.309723
0.000000 0.981567 0.391937
0.015503 0.981567 0.391541
0.207489 0.981720 0.381287
0.384888 0.981964 0.363708
0.568054 0.981964 0.360840
0.722229 0.981964 0.357452
0.856171 0.981934 0.346375
0.979248 0.976532 0.331024
0.123138 0.029205 0.654114
0.195435 0.017944 0.653687
0.330383 0.000000 0.652679
0.492310 0.000000 0.651093
0.660828 0.000000 0.648712
0.811188 0.000000 0.639282
0.932404 0.000000 0.616608
0.982300 0.000000 0.591980
0.068695 0.111176 0.653992
0.157318 0.096405 0.654236
0.314331 0.082458 0.653168
0.486938 0.050690 0.651581
0.660400 0.013306 0.648315
0.811096 0.013306 0.637421
0.931976 0.013306 0.615204
0.982361 0.100464 0.590576
0.000000 0.273926 0.652039
0.015503 0.261536 0.652222
0.246216 0.215302 0.655151
0.464844 0.204834 0.652954
0.661407 0.192780 0.649292
0.811249 0.191620 0.629822
0.930450 0.211700 0.607880
0.982513 0.255737 0.589752
0.000000 0.463013 0.647919
0.015503 0.458801 0.648071
0.203461 0.438538 0.650696
0.422791 0.402710 0.652863
0.661011 0.400574 0.648193
0.809143 0.407349 0.621918
0.925903 0.420746 0.607025
0.982697 0.448608 0.602112
0.000000 0.644745 0.642456
0.015503 0.644470 0.642426
0.189178 0.645813 0.644470
0.412903 0.647369 0.646942
0.648743 0.636902 0.636902
0.792694 0.615265 0.614990
0.910126 0.588898 0.587830
0.982727 0.565521 0.562714
0.000000 0.799225 0.629456
0.015503 0.799072 0.628174
0.185272 0.799225 0.622192
0.402679 0.798584 0.612671
0.624115 0.794067 0.610046
0.796295 0.787354 0.603180
0.888885 0.720978 0.530212
0.982697 0.671021 0.459656
0.000000 0.921173 0.604187
0.015503 0.920746 0.603363
0.198730 0.919342 0.596588
0.403809 0.916107 0.588959
0.606537 0.911194 0.592590
0.765106 0.907104 0.589813
0.904572 0.899811 0.579865
0.982819 0.852417 0.520844
0.000000 0.981567 0.572113
0.015503 0.981567 0.572632
0.223145 0.981750 0.568390
0.413086 0.982056 0.569977
0.596802 0.982269 0.582550
0.735321 0.982269 0.580536
0.859863 0.982269 0.573212
0.977081 0.975250 0.560791
0.137299 0.000000 0.803406
0.202393 0.000000 0.803253
0.330383 0.000000 0.802734
0.488312 0.000000 0.801727
0.653168 0.000000 0.799896
0.805634 0.000000 0.797455
0.927216 0.000000 0.775177
0.982300 0.012939 0.742676
0.083435 0.093018 0.803619
0.167999 0.086792 0.803528
0.314484 0.073395 0.802979
0.481445 0.041138 0.801514
0.650818 0.013275 0.799591
0.805267 0.013275 0.797211
0.926758 0.013275 0.774384
0.982361 0.111511 0.741638
0.000000 0.255615 0.802307
0.056030 0.249268 0.802368
0.250366 0.209717 0.803253
0.453522 0.202423 0.801880
0.641907 0.195679 0.799957
0.805176 0.192261 0.797180
0.925262 0.214874 0.770721
0.982513 0.260437 0.740326
0.000000 0.445526 0.798981
0.015503 0.441864 0.798950
0.213806 0.421600 0.800293
0.415070 0.392242 0.801544
0.630859 0.393188 0.799652
0.804596 0.397614 0.796448
0.921417 0.417786 0.767761
0.982727 0.448395 0.743805
0.000000 0.630249 0.794678
0.015503 0.629028 0.794647
0.206970 0.623413 0.795959
0.417633 0.616791 0.797424
0.629395 0.615051 0.795776
0.801025 0.615997 0.792450
0.915405 0.622131 0.770996
0.982788 0.633942 0.758057
0.000000 0.791534 0.789612
0.015503 0.791321 0.789551
0.201447 0.791992 0.790680
0.415436 0.793274 0.792664
0.627991 0.791565 0.791443
0.791748 0.783997 0.783997
0.901794 0.765839 0.765747
0.982666 0.747742 0.747375
0.000000 0.919647 0.767731
0.015503 0.919128 0.767456
0.217133 0.917480 0.764679
0.417450 0.914276 0.761169
0.615417 0.909454 0.761505
0.777252 0.903839 0.768524
0.903076 0.898712 0.763336
0.982697 0.845337 0.698944
0.000000 0.981567 0.730957
0.072968 0.981598 0.730743
0.248260 0.981781 0.728577
0.431580 0.982086 0.728821
0.616516 0.982300 0.738190
0.767670 0.982300 0.759033
0.873535 0.980103 0.756836
0.974854 0.973419 0.748688
0.145264 0.000000 0.918091
0.205292 0.000000 0.918549
0.323944 0.000000 0.918030
0.472748 0.000000 0.917114
0.631348 0.000000 0.915863
0.778107 0.000000 0.914001
0.915710 0.000000 0.911560
0.982330 0.041504 0.876007
0.103790 0.083740 0.916016
0.177124 0.081238 0.916473
0.308838 0.071594 0.915985
0.464630 0.050995 0.915009
0.627014 0.013275 0.913452
0.774811 0.013275 0.911194
0.912720 0.013275 0.908478
0.982361 0.105896 0.873505
0.000031 0.251434 0.916412
0.107056 0.238342 0.916473
0.256165 0.207336 0.916046
0.438721 0.204041 0.914948
0.615570 0.201416 0.912964
0.771057 0.204132 0.910828
0.912964 0.215515 0.908752
0.982513 0.259613 0.872925
0.000000 0.430328 0.914795
0.086823 0.426819 0.914490
0.246063 0.412994 0.914093
0.414185 0.388062 0.914185
0.606964 0.391571 0.912415
0.769104 0.399994 0.910706
0.912811 0.413391 0.908752
0.982758 0.445862 0.872223
0.000000 0.605408 0.909515
0.066040 0.604095 0.909058
0.244171 0.598633 0.908661
0.433350 0.597748 0.908478
0.612030 0.596802 0.907501
0.768127 0.599457 0.905884
0.908051 0.604126 0.903748
0.982880 0.624695 0.873108
0.000000 0.760040 0.904633
0.054626 0.759857 0.904572
0.244965 0.758240 0.904907
0.434235 0.758179 0.905396
0.622955 0.761780 0.904633
0.778900 0.770050 0.902924
0.905487 0.771698 0.901306
0.982788 0.779968 0.881744
0.000000 0.902435 0.900818
0.073792 0.902649 0.901184
0.252380 0.902893 0.901733
0.438538 0.903229 0.902466
0.622711 0.902069 0.901764
0.779419 0.899628 0.899536
0.899933 0.895935 0.895966
0.976990 0.883301 0.883270
0.038635 0.981598 0.871185
0.128784 0.981628 0.870483
0.279297 0.981842 0.869598
0.454193 0.982117 0.867950
0.627930 0.982300 0.868500
0.778229 0.982269 0.875641
0.895386 0.975281 0.891235
0.972504 0.971283 0.887756
0.152100 0.000000 0.981567
0.205750 0.000000 0.981567
0.310883 0.000000 0.981567
0.445953 0.000000 0.981567
0.594666 0.000000 0.981567
0.734161 0.000000 0.981567
0.864960 0.000000 0.981567
0.982300 0.036285 0.981567
0.120850 0.082306 0.981598
0.183105 0.081116 0.981598
0.298248 0.075073 0.981598
0.438873 0.065460 0.981598
0.591064 0.056366 0.981598
0.732330 0.055603 0.981598
0.863647 0.075684 0.981598
0.982361 0.107819 0.981628
0.074097 0.235291 0.981598
0.133057 0.223877 0.981659
0.256012 0.200806 0.981720
0.417572 0.201935 0.981720
0.580536 0.203857 0.981720
0.727234 0.209564 0.981720
0.861176 0.223450 0.981750
0.982513 0.244843 0.981750
0.098389 0.411926 0.981628
0.152710 0.407501 0.981659
0.257721 0.391937 0.981812
0.401367 0.371613 0.981995
0.574951 0.377991 0.981995
0.724823 0.386871 0.981995
0.859467 0.401184 0.982025
0.982758 0.419708 0.981995
0.098541 0.574158 0.981628
0.161865 0.573761 0.981689
0.286957 0.574158 0.981842
0.452087 0.582581 0.982117
0.591278 0.574524 0.982269
0.731812 0.579773 0.981934
0.860718 0.588928 0.980530
0.980194 0.602753 0.979095
0.095062 0.718445 0.981628
0.156219 0.717712 0.981659
0.280914 0.716858 0.981842
0.444824 0.719574 0.980530
0.617493 0.732147 0.978760
0.757202 0.747559 0.977448
0.871765 0.756348 0.976837
0.977081 0.767670 0.975952
0.106903 0.851379 0.979034
0.166260 0.851044 0.978851
0.289246 0.850494 0.978302
0.453735 0.851562 0.977448
0.623596 0.856689 0.976074
0.774475 0.869446 0.974396
0.891907 0.887512 0.972748
0.972870 0.890350 0.971649
0.137695 0.976532 0.975159
0.192688 0.976349 0.975067
0.311981 0.975739 0.974670
0.473175 0.974884 0.974243
0.636658 0.973724 0.973419
0.782013 0.972198 0.972107
0.896637 0.970551 0.970551
0.970154 0.968964 0.968964
