assets/Vitality.CUBE
#Created by: Adobe Photoshop Export Color Lookup Plugin
TITLE "Vitality"
#LUT size
LUT_3D_SIZE 5
#data domain
#LUT data points
DOMAIN_MIN 0.000000 0.000000 0.000000
DOMAIN_MAX 0.903226 0.903226 0.903226
0.100616 0.091461 0.091461
0.237762 0.084412 0.079468
0.526276 0.094421 0.056244
0.821594 0.114960 0.004517
0.982300 0.119110 0.000000
0.084534 0.227356 0.070679
0.241760 0.225616 0.067078
0.493042 0.237183 0.050629
0.803986 0.263031 0.000000
0.982300 0.258179 0.000000
0.065979 0.538879 0.005219
0.272156 0.538635 0.000031
0.554626 0.537384 0.000000
0.771271 0.500427 0.000000
0.982300 0.497650 0.000000
0.000000 0.831696 0.000000
0.256104 0.829895 0.000000
0.560883 0.825104 0.000000
0.824402 0.814056 0.000000
0.982300 0.759766 0.000000
0.000000 0.981567 0.000000
0.213348 0.981567 0.000000
0.506134 0.981567 0.000000
0.766846 0.981567 0.000000
0.982025 0.977448 0.000000
0.093201 0.073547 0.231873
0.244080 0.063690 0.229126
0.554688 0.000000 0.240356
0.841919 0.000000 0.204956
0.982300 0.000000 0.179749
0.067474 0.229706 0.228546
0.239014 0.224670 0.224670
0.542328 0.198761 0.190948
0.826233 0.192017 0.162140
0.982361 0.192230 0.138123
0.000000 0.540649 0.239532
0.195709 0.546661 0.175323
0.557892 0.541931 0.166016
0.769897 0.478516 0.123138
0.982330 0.475952 0.087250
0.000000 0.833221 0.196259
0.171722 0.832794 0.141541
0.542847 0.827026 0.134338
0.824402 0.814972 0.117249
0.982300 0.752228 0.023682
0.000000 0.981567 0.149933
0.159027 0.981628 0.118347
0.490997 0.981628 0.111206
0.762299 0.981598 0.093231
0.981110 0.977203 0.023651
0.115417 0.043030 0.556274
0.285461 0.016327 0.554749
0.565552 0.000000 0.551544
0.845764 0.000000 0.545105
0.982300 0.000000 0.507202
0.000000 0.237549 0.554016
0.215302 0.186279 0.557739
0.567108 0.164703 0.552979
0.845673 0.144928 0.532318
0.982452 0.211029 0.504425
0.000000 0.549927 0.547455
0.156830 0.551331 0.549896
0.556366 0.542542 0.542542
0.827606 0.497925 0.496216
0.982666 0.456482 0.450226
0.000000 0.832733 0.533417
0.129669 0.832397 0.522644
0.511780 0.829620 0.494934
0.826538 0.818512 0.483032
0.982574 0.719147 0.344208
0.000000 0.981567 0.483185
0.167236 0.981689 0.479065
0.493713 0.982147 0.475830
0.759979 0.982147 0.470581
0.978241 0.975983 0.445984
0.138794 0.000000 0.835297
0.294159 0.000000 0.834869
0.568756 0.000000 0.832825
0.836273 0.000000 0.829224
0.982300 0.026978 0.777374
0.000031 0.215912 0.834503
0.225403 0.174103 0.835083
0.552307 0.159180 0.832642
0.835724 0.149658 0.828705
0.982452 0.221222 0.775391
0.000000 0.536163 0.829193
0.169189 0.526550 0.829529
0.521912 0.503632 0.830109
0.831085 0.506531 0.823730
0.982819 0.543488 0.780487
0.000000 0.822784 0.820862
0.159698 0.822784 0.821381
0.527496 0.823944 0.823547
0.822052 0.815308 0.815338
0.982635 0.785645 0.785370
0.000000 0.981567 0.767792
0.214417 0.981750 0.765839
0.531982 0.982208 0.767365
0.803986 0.982239 0.796539
0.974243 0.972961 0.788513
0.152100 0.000000 0.981567
0.281128 0.000000 0.981567
0.520691 0.000000 0.981567
0.767670 0.000000 0.981567
0.982300 0.036285 0.981567
0.084747 0.195038 0.981598
0.233063 0.168457 0.981689
0.504639 0.166290 0.981689
0.763000 0.174469 0.981689
0.982452 0.209625 0.981720
0.101807 0.495392 0.981628
0.251862 0.494537 0.981781
0.495270 0.472992 0.982147
0.759399 0.484253 0.982147
0.981903 0.513245 0.980774
0.103455 0.753448 0.981628
0.252075 0.752350 0.981659
0.538147 0.758698 0.979279
0.794128 0.786011 0.976013
0.976044 0.802368 0.974915
0.137695 0.976532 0.975159
0.277069 0.975922 0.974854
0.556702 0.974365 0.973907
0.814148 0.971802 0.971710
0.970154 0.968964 0.968964
