assets/Vitality.CUBE
#Created by: Adobe Photoshop Export Color Lookup Plugin
TITLE "Vitality"
#LUT size
LUT_3D_SIZE 32
#data domain
DOMAIN_MIN 0.0 0.0 0.0
DOMAIN_MAX 1.0 1.0 1.0
#LUT data points
0.100616 0.091461 0.091461
0.108429 0.091461 0.091431
0.117279 0.091125 0.091156
0.130280 0.090942 0.090698
0.150818 0.089905 0.089539
0.177979 0.088135 0.086975
0.207062 0.086273 0.083557
0.237762 0.084412 0.079468
0.270264 0.083252 0.075836
0.304962 0.083557 0.072876
0.342682 0.084961 0.069885
0.383759 0.086639 0.066803
0.428101 0.089447 0.063629
0.476135 0.091339 0.060303
0.526276 0.094421 0.056244
0.575867 0.097107 0.051880
0.623840 0.100098 0.046997
0.669128 0.103394 0.041290
0.711487 0.105865 0.035156
0.750732 0.108124 0.028931
0.787201 0.111267 0.019958
0.821594 0.114960 0.004517
0.853973 0.117004 0.000000
0.885315 0.117523 0.000000
0.915344 0.118347 0.000000
0.944092 0.118774 0.000000
0.970490 0.118896 0.000000
0.976379 0.119019 0.000000
0.982300 0.119110 0.000000
0.988190 0.118958 0.000000
0.994110 0.118530 0.000000
1.000000 0.118225 0.000000
0.100891 0.098907 0.090942
0.108459 0.098877 0.091309
0.117096 0.098846 0.091125
0.130249 0.098816 0.090637
0.150635 0.098602 0.089294
0.177521 0.098022 0.086792
0.206451 0.096558 0.083435
0.237061 0.095123 0.079346
0.269531 0.094574 0.075592
0.304047 0.095306 0.072571
0.341827 0.096130 0.069733
0.382751 0.098175 0.066620
0.427277 0.100067 0.063538
0.475128 0.102631 0.060089
0.525208 0.105713 0.055969
0.575073 0.108307 0.051758
0.622681 0.111908 0.046692
0.668427 0.113983 0.041138
0.710968 0.116547 0.034943
0.750092 0.119476 0.028259
0.786713 0.122162 0.018463
0.821014 0.125519 0.003052
0.853516 0.127228 0.000000
0.885010 0.127136 0.000000
0.915039 0.127625 0.000000
0.943848 0.128662 0.000000
0.970490 0.128815 0.000000
0.976379 0.128754 0.000000
0.982300 0.128754 0.000000
0.988190 0.128479 0.000000
0.994110 0.128265 0.000000
1.000000 0.127472 0.000000
0.100403 0.107635 0.090424
0.109039 0.107605 0.090271
0.117493 0.107178 0.090637
0.130249 0.107513 0.090546
0.150208 0.108185 0.089142
0.176941 0.108276 0.086639
0.205597 0.107910 0.083252
0.236023 0.107025 0.079285
0.268402 0.106689 0.075348
0.303131 0.107208 0.072418
0.340607 0.108704 0.069427
0.381592 0.110779 0.066254
0.426056 0.112854 0.063263
0.473694 0.115387 0.059723
0.523895 0.118256 0.055786
0.573608 0.121246 0.051331
0.621552 0.124603 0.046143
0.667175 0.126678 0.040802
0.709869 0.129181 0.034271
0.749207 0.131683 0.027863
0.785919 0.134277 0.017334
0.820343 0.137268 0.001953
0.852966 0.138519 0.000000
0.884399 0.138855 0.000000
0.914520 0.139313 0.000000
0.943451 0.139526 0.000000
0.970490 0.139587 0.000000
0.976379 0.139801 0.000000
0.982300 0.139343 0.000000
0.988190 0.139313 0.000000
0.994110 0.138458 0.000000
1.000000 0.137756 0.000000
0.099243 0.120575 0.089020
0.108368 0.120667 0.088959
0.118225 0.120789 0.088837
0.131622 0.120361 0.088348
0.150665 0.121765 0.088745
0.175568 0.123047 0.086243
0.203796 0.123657 0.082977
0.234039 0.123596 0.078949
0.266357 0.123749 0.075012
0.300751 0.124847 0.071991
0.338226 0.126404 0.068970
0.379120 0.128418 0.065887
0.423218 0.131165 0.062805
0.470764 0.133972 0.059204
0.520813 0.137054 0.055115
0.570831 0.140350 0.050598
0.618896 0.143280 0.045441
0.664673 0.145782 0.039856
0.707458 0.148163 0.033447
0.747162 0.150360 0.026672
0.784149 0.153046 0.014191
0.818787 0.155579 0.000000
0.851624 0.156189 0.000000
0.883209 0.156433 0.000000
0.913574 0.156464 0.000000
0.942596 0.156525 0.000000
0.970367 0.156372 0.000000
0.976379 0.156403 0.000000
0.982300 0.156006 0.000000
0.988190 0.155304 0.000000
0.994110 0.154266 0.000000
1.000000 0.153229 0.000000
0.096497 0.141449 0.085999
0.106934 0.141541 0.085938
0.118225 0.141754 0.085785
0.134674 0.141968 0.085693
0.154144 0.141479 0.084076
0.177643 0.142731 0.084595
0.203278 0.143005 0.082153
0.231262 0.143036 0.078400
0.263275 0.144043 0.074524
0.297424 0.145599 0.071381
0.334503 0.147644 0.068329
0.374969 0.150391 0.065216
0.418915 0.153320 0.062073
0.466309 0.156647 0.058289
0.516174 0.159973 0.054321
0.566254 0.163666 0.049591
0.614655 0.166901 0.044098
0.660645 0.169830 0.038208
0.703827 0.171997 0.031677
0.744019 0.173889 0.025024
0.781464 0.176270 0.010132
0.816406 0.178528 0.000000
0.849579 0.178619 0.000000
0.881409 0.178864 0.000000
0.911987 0.178589 0.000000
0.941254 0.178406 0.000000
0.969208 0.178162 0.000000
0.976379 0.177521 0.000000
0.982300 0.177032 0.000000
0.988190 0.176025 0.000000
0.994110 0.174530 0.000000
1.000000 0.173035 0.000000
0.092560 0.167908 0.081635
0.104187 0.167908 0.081360
0.116882 0.167847 0.081390
0.135315 0.167877 0.081055
0.157440 0.167755 0.080841
0.181061 0.167114 0.078705
0.206696 0.167175 0.078522
0.233246 0.166992 0.076904
0.260529 0.166168 0.073883
0.293152 0.167572 0.070770
0.329803 0.170349 0.067749
0.369995 0.173370 0.064545
0.413422 0.177094 0.061249
0.460297 0.181061 0.057281
0.509979 0.185059 0.053040
0.560364 0.189056 0.048187
0.608978 0.192810 0.042847
0.655334 0.196075 0.036469
0.698822 0.198669 0.029785
0.739655 0.200867 0.020935
0.777618 0.203522 0.004120
0.813171 0.204437 0.000000
0.846680 0.204742 0.000000
0.878815 0.204803 0.000000
0.909760 0.204742 0.000000
0.939301 0.203979 0.000000
0.967590 0.203461 0.000000
0.976379 0.202606 0.000000
0.982300 0.201660 0.000000
0.988190 0.200165 0.000000
0.994110 0.198425 0.000000
1.000000 0.196259 0.000000
0.088501 0.196533 0.076111
0.100830 0.196350 0.076172
0.114441 0.196350 0.076111
0.134338 0.196228 0.075928
0.158142 0.196106 0.075684
0.183990 0.195953 0.075195
0.210297 0.195099 0.072968
0.238007 0.194794 0.072021
0.265594 0.194183 0.071655
0.294220 0.193512 0.069336
0.324066 0.193329 0.067078
0.363495 0.197205 0.063751
0.406372 0.201691 0.060333
0.452850 0.206360 0.056244
0.502228 0.211273 0.051636
0.552826 0.215637 0.046844
0.601837 0.220154 0.040894
0.648407 0.223724 0.034515
0.692413 0.227051 0.027313
0.734039 0.229858 0.014587
0.772675 0.232513 0.000000
0.809021 0.232941 0.000000
0.842957 0.233307 0.000000
0.875641 0.233185 0.000000
0.906952 0.232697 0.000000
0.936920 0.231842 0.000000
0.965546 0.231537 0.000000
0.976379 0.229980 0.000000
0.982300 0.228790 0.000000
0.988190 0.227020 0.000000
0.994110 0.224823 0.000000
1.000000 0.222198 0.000000
0.084534 0.227356 0.070679
0.097351 0.227295 0.070557
0.111755 0.227234 0.070496
0.132874 0.226898 0.070312
0.158264 0.226929 0.069916
0.185211 0.226685 0.069641
0.213531 0.226410 0.069122
0.241760 0.225616 0.067078
0.271881 0.225830 0.065948
0.300964 0.224762 0.066132
0.331024 0.224060 0.064545
0.362030 0.223663 0.062317
0.398407 0.225922 0.059326
0.444122 0.231415 0.055115
0.493042 0.237183 0.050629
0.543640 0.242737 0.045013
0.593018 0.247864 0.039093
0.640106 0.252411 0.032166
0.684662 0.256195 0.024353
0.727142 0.259918 0.007111
0.766907 0.262024 0.000000
0.803986 0.263031 0.000000
0.838501 0.263550 0.000000
0.871704 0.263367 0.000000
0.903503 0.262909 0.000000
0.933990 0.262268 0.000000
0.963074 0.261353 0.000000
0.976379 0.259888 0.000000
0.982300 0.258179 0.000000
0.988190 0.255981 0.000000
0.994110 0.253387 0.000000
1.000000 0.250366 0.000000
0.080383 0.260742 0.065277
0.094849 0.260590 0.065186
0.109222 0.260681 0.065094
0.131622 0.260376 0.064880
0.157959 0.260376 0.064514
0.186096 0.260223 0.064056
0.215668 0.260071 0.063507
0.246002 0.259888 0.062775
0.276001 0.259064 0.061554
0.308258 0.259705 0.060577
0.340057 0.259430 0.060089
0.371704 0.258545 0.058197
0.404297 0.258057 0.056122
0.437469 0.257507 0.053619
0.482391 0.262665 0.049255
0.532684 0.269226 0.043579
0.582367 0.275269 0.037170
0.630035 0.280853 0.029602
0.675476 0.285675 0.018829
0.719025 0.290222 0.000000
0.759735 0.292694 0.000000
0.797821 0.293884 0.000000
0.833252 0.294617 0.000000
0.867004 0.294739 0.000000
0.899414 0.294373 0.000000
0.930511 0.293701 0.000000
0.960175 0.292633 0.000000
0.976379 0.291321 0.000000
0.982300 0.289307 0.000000
0.988190 0.286835 0.000000
0.994110 0.283966 0.000000
1.000000 0.280365 0.000000
0.078400 0.297302 0.060883
0.092651 0.297150 0.060791
0.108276 0.297119 0.060577
0.131165 0.297119 0.060272
0.158417 0.296875 0.060028
0.187744 0.296936 0.059357
0.218231 0.296875 0.058777
0.249420 0.296814 0.057983
0.281677 0.296844 0.057098
0.313782 0.296173 0.055847
0.348114 0.297150 0.054474
0.383209 0.297882 0.052887
0.416687 0.296997 0.051086
0.450592 0.295898 0.048340
0.484680 0.294830 0.045410
0.520386 0.294556 0.042358
0.570221 0.301910 0.034973
0.618591 0.308411 0.027222
0.664825 0.314636 0.012054
0.709412 0.319855 0.000000
0.751465 0.323212 0.000000
0.790619 0.325317 0.000000
0.826996 0.326447 0.000000
0.861542 0.326843 0.000000
0.894623 0.326935 0.000000
0.926392 0.326294 0.000000
0.956665 0.325470 0.000000
0.976379 0.323883 0.000000
0.982300 0.321899 0.000000
0.988190 0.319092 0.000000
0.994110 0.315735 0.000000
1.000000 0.311737 0.000000
0.076202 0.337860 0.055756
0.090546 0.337891 0.055634
0.107422 0.337708 0.055420
0.131042 0.337585 0.055237
0.158966 0.337555 0.054871
0.189667 0.337616 0.054108
0.221436 0.337769 0.053375
0.253937 0.337982 0.052460
0.287170 0.337952 0.051514
0.321472 0.338043 0.050354
0.355774 0.337769 0.048798
0.392151 0.338684 0.046875
0.431000 0.340851 0.043793
0.465454 0.338989 0.041138
0.500000 0.337036 0.038086
0.534088 0.334900 0.034576
0.566345 0.332642 0.031067
0.605560 0.334900 0.025238
0.652527 0.342377 0.006012
0.698334 0.348724 0.000000
0.741821 0.353516 0.000000
0.782288 0.356659 0.000000
0.819794 0.358612 0.000000
0.855255 0.359558 0.000000
0.889099 0.359955 0.000000
0.921631 0.359680 0.000000
0.952698 0.358887 0.000000
0.976379 0.357605 0.000000
0.982300 0.355530 0.000000
0.988190 0.352692 0.000000
0.994110 0.349091 0.000000
1.000000 0.344513 0.000000
0.073883 0.382843 0.049438
0.088470 0.382904 0.049622
0.105377 0.382874 0.049530
0.130219 0.382690 0.048981
0.160004 0.382812 0.048431
0.191864 0.382812 0.047546
0.224701 0.382996 0.046814
0.258820 0.383575 0.045593
0.293518 0.383575 0.044403
0.328949 0.383636 0.042603
0.365265 0.383728 0.041077
0.401611 0.383392 0.039368
0.439667 0.383881 0.036530
0.482300 0.387543 0.031219
0.517365 0.384338 0.027649
0.550842 0.380981 0.023712
0.582886 0.377716 0.015289
0.613068 0.374084 0.007172
0.642273 0.370941 0.000000
0.685822 0.376465 0.000000
0.730865 0.382935 0.000000
0.772614 0.387604 0.000000
0.811493 0.390564 0.000000
0.847900 0.392365 0.000000
0.882843 0.393311 0.000000
0.916199 0.393707 0.000000
0.948151 0.393219 0.000000
0.976379 0.392181 0.000000
0.982300 0.390259 0.000000
0.988190 0.387238 0.000000
0.994110 0.383362 0.000000
1.000000 0.378448 0.000000
0.069916 0.432251 0.041168
0.086090 0.432159 0.040924
0.103546 0.432068 0.040649
0.129974 0.432037 0.040405
0.161255 0.432037 0.039490
0.194061 0.432220 0.038483
0.228119 0.432465 0.037750
0.263489 0.432648 0.036224
0.299927 0.433167 0.034241
0.336578 0.432953 0.032440
0.373962 0.432953 0.030457
0.412109 0.432892 0.028442
0.450958 0.432709 0.025543
0.490265 0.432526 0.021484
0.535889 0.437317 0.004272
0.569092 0.432648 0.000031
0.600525 0.427521 0.000000
0.630219 0.422180 0.000000
0.658752 0.417297 0.000000
0.687256 0.413025 0.000000
0.718231 0.411072 0.000000
0.761810 0.417419 0.000000
0.802124 0.421906 0.000000
0.839783 0.424744 0.000000
0.875671 0.426666 0.000000
0.910126 0.427643 0.000000
0.942993 0.427856 0.000000
0.974152 0.427246 0.000000
0.982300 0.425446 0.000000
0.988190 0.422546 0.000000
0.994110 0.418671 0.000000
1.000000 0.413330 0.000000
0.066040 0.485168 0.029999
0.083313 0.485107 0.029724
0.101593 0.485046 0.029266
0.128906 0.485077 0.028900
0.161560 0.484955 0.027832
0.195923 0.485016 0.026978
0.231415 0.485107 0.025818
0.268036 0.485199 0.023682
0.305481 0.485535 0.020111
0.343842 0.485687 0.014587
0.382385 0.485138 0.008362
0.421600 0.484863 0.003082
0.461639 0.484772 0.000031
0.502472 0.484589 0.000031
0.543304 0.484436 0.000031
0.588715 0.489655 0.000000
0.619415 0.482513 0.000000
0.648346 0.475281 0.000000
0.676025 0.468140 0.000000
0.703522 0.462006 0.000000
0.730621 0.456635 0.000000
0.757507 0.451752 0.000000
0.791473 0.452301 0.000000
0.830566 0.456604 0.000000
0.867706 0.459625 0.000000
0.903229 0.461578 0.000000
0.937256 0.462708 0.000000
0.969360 0.462769 0.000000
0.982300 0.461456 0.000000
0.988190 0.458740 0.000000
0.994110 0.454712 0.000000
1.000000 0.449188 0.000000
0.065979 0.538879 0.005219
0.083099 0.538849 0.004425
0.100983 0.538757 0.004913
0.129761 0.538727 0.002686
0.163300 0.538544 0.000885
0.198517 0.538574 0.000031
0.235016 0.538544 0.000031
0.272156 0.538635 0.000031
0.310547 0.538788 0.000031
0.349884 0.539062 0.000031
0.389587 0.538940 0.000000
0.430145 0.538513 0.000000
0.471252 0.538147 0.000000
0.513275 0.537811 0.000000
0.554626 0.537384 0.000000
0.594543 0.536987 0.000000
0.639038 0.541718 0.000000
0.666931 0.532410 0.000000
0.693695 0.523193 0.000000
0.719818 0.514923 0.000000
0.745697 0.507355 0.000000
0.771271 0.500427 0.000000
0.796753 0.494476 0.000000
0.822418 0.489166 0.000000
0.858734 0.492065 0.000000
0.895569 0.495300 0.000000
0.930786 0.497498 0.000000
0.964142 0.498230 0.000000
0.982300 0.497650 0.000000
0.988190 0.495544 0.000000
0.994110 0.491577 0.000000
1.000000 0.485931 0.000000
0.056732 0.590790 0.000000
0.075256 0.590790 0.000000
0.095581 0.590729 0.000000
0.125275 0.590668 0.000000
0.160767 0.590515 0.000000
0.197479 0.590332 0.000000
0.235016 0.590302 0.000000
0.273712 0.590424 0.000000
0.313446 0.590332 0.000000
0.353790 0.590424 0.000000
0.394989 0.590515 0.000000
0.436584 0.589966 0.000000
0.478607 0.589233 0.000000
0.521515 0.588531 0.000000
0.563263 0.587860 0.000000
0.603546 0.587158 0.000000
0.642517 0.586395 0.000000
0.684265 0.589203 0.000000
0.711029 0.579071 0.000000
0.736023 0.568665 0.000000
0.760620 0.559326 0.000000
0.784973 0.550690 0.000000
0.809326 0.542999 0.000000
0.833801 0.536194 0.000000
0.858948 0.530670 0.000000
0.886993 0.527679 0.000000
0.923645 0.531006 0.000000
0.958344 0.532959 0.000000
0.982300 0.533295 0.000000
0.988190 0.531738 0.000000
0.994110 0.528259 0.000000
1.000000 0.522736 0.000000
0.038239 0.639832 0.000000
0.063660 0.639832 0.000000
0.086823 0.639740 0.000000
0.119629 0.639557 0.000000
0.156982 0.639435 0.000000
0.194946 0.639252 0.000000
0.234131 0.639099 0.000000
0.274109 0.638916 0.000000
0.314545 0.638794 0.000000
0.355743 0.638489 0.000000
0.397766 0.638397 0.000000
0.440460 0.638062 0.000000
0.483276 0.637207 0.000000
0.526642 0.636108 0.000000
0.568512 0.635040 0.000000
0.608917 0.633972 0.000000
0.648041 0.632690 0.000000
0.686066 0.631592 0.000000
0.724701 0.632080 0.000000
0.751770 0.622650 0.000000
0.775177 0.611267 0.000000
0.798401 0.600830 0.000000
0.821655 0.591522 0.000000
0.845306 0.583466 0.000000
0.869507 0.576630 0.000000
0.894440 0.570862 0.000000
0.920441 0.566284 0.000000
0.951874 0.566101 0.000000
0.982300 0.567596 0.000000
0.988190 0.566772 0.000000
0.994110 0.563873 0.000000
1.000000 0.558655 0.000000
0.000000 0.684570 0.000000
0.048004 0.684509 0.000000
0.076111 0.684418 0.000000
0.112854 0.684235 0.000000
0.152069 0.683990 0.000000
0.191620 0.683624 0.000000
0.231842 0.683380 0.000000
0.272156 0.683014 0.000000
0.313660 0.682648 0.000000
0.355469 0.682251 0.000000
0.397949 0.681915 0.000000
0.441193 0.681458 0.000000
0.484680 0.680634 0.000000
0.528473 0.679504 0.000000
0.570648 0.678314 0.000000
0.611267 0.677002 0.000000
0.650726 0.675781 0.000000
0.688782 0.674377 0.000000
0.725647 0.673004 0.000000
0.762115 0.671936 0.000000
0.789276 0.663086 0.000000
0.811554 0.651001 0.000000
0.833954 0.640137 0.000000
0.856720 0.630676 0.000000
0.879913 0.622437 0.000000
0.903900 0.615509 0.000000
0.928772 0.609711 0.000000
0.954529 0.604950 0.000000
0.980865 0.601013 0.000000
0.988190 0.600647 0.000000
0.994110 0.598480 0.000000
1.000000 0.593658 0.000000
0.000000 0.725281 0.000000
0.009033 0.725250 0.000000
0.063690 0.725128 0.000000
0.105347 0.724945 0.000000
0.146301 0.724670 0.000000
0.187500 0.724304 0.000000
0.228149 0.724030 0.000000
0.269562 0.723541 0.000000
0.311066 0.723175 0.000000
0.353271 0.722687 0.000000
0.396118 0.722137 0.000000
0.439758 0.721558 0.000000
0.483978 0.721008 0.000000
0.528046 0.719757 0.000000
0.570465 0.718506 0.000000
0.611389 0.717163 0.000000
0.650787 0.715729 0.000000
0.688965 0.714264 0.000000
0.726044 0.712708 0.000000
0.762085 0.711090 0.000000
0.796814 0.709076 0.000000
0.824371 0.701080 0.000000
0.846008 0.688690 0.000000
0.867828 0.677765 0.000000
0.890167 0.667999 0.000000
0.913147 0.659821 0.000000
0.936951 0.652710 0.000000
0.961487 0.646698 0.000000
0.982300 0.641479 0.000000
0.988190 0.636536 0.000000
0.994110 0.632111 0.000000
1.000000 0.627930 0.000000
0.000000 0.763000 0.000000
0.005707 0.762909 0.000000
0.044220 0.762878 0.000000
0.096344 0.762695 0.000000
0.140350 0.762390 0.000000
0.182220 0.762024 0.000000
0.224060 0.761597 0.000000
0.265442 0.761200 0.000000
0.307648 0.760651 0.000000
0.350037 0.760040 0.000000
0.393341 0.759460 0.000000
0.436859 0.758850 0.000000
0.481018 0.758118 0.000000
0.525696 0.757294 0.000000
0.568329 0.755951 0.000000
0.609375 0.754517 0.000000
0.649109 0.753052 0.000000
0.687378 0.751556 0.000000
0.724518 0.750000 0.000000
0.760712 0.748322 0.000000
0.795898 0.746674 0.000000
0.829651 0.744385 0.000000
0.857635 0.737244 0.000000
0.878662 0.724701 0.000000
0.900116 0.713531 0.000000
0.922119 0.703796 0.000000
0.944794 0.695282 0.000000
0.968170 0.687988 0.000000
0.982300 0.681427 0.000000
0.988190 0.675262 0.000000
0.994110 0.668976 0.000000
1.000000 0.662048 0.000000
0.000000 0.798218 0.000000
0.005707 0.798157 0.000000
0.011353 0.798065 0.000000
0.087006 0.797852 0.000000
0.133575 0.797607 0.000000
0.176788 0.797272 0.000000
0.219421 0.796844 0.000000
0.261047 0.796417 0.000000
0.303406 0.795837 0.000000
0.346191 0.795258 0.000000
0.389435 0.794647 0.000000
0.433075 0.793976 0.000000
0.477203 0.793243 0.000000
0.522034 0.792511 0.000000
0.565155 0.791382 0.000000
0.606323 0.790039 0.000000
0.646149 0.788544 0.000000
0.684631 0.787018 0.000000
0.721924 0.785431 0.000000
0.758148 0.783844 0.000000
0.793488 0.782166 0.000000
0.827942 0.780426 0.000000
0.860931 0.777832 0.000000
0.888977 0.771301 0.000000
0.909515 0.758667 0.000000
0.930603 0.747498 0.000000
0.952240 0.737549 0.000000
0.974457 0.728912 0.000000
0.982300 0.720825 0.000000
0.988190 0.713409 0.000000
0.994110 0.705902 0.000000
1.000000 0.697784 0.000000
0.000000 0.831696 0.000000
0.005707 0.831604 0.000000
0.011353 0.831543 0.000000
0.075226 0.831360 0.000000
0.125702 0.831116 0.000000
0.171204 0.830750 0.000000
0.214081 0.830383 0.000000
0.256104 0.829895 0.000000
0.298889 0.829315 0.000000
0.341614 0.828735 0.000000
0.384827 0.828094 0.000000
0.428558 0.827423 0.000000
0.472656 0.826691 0.000000
0.517273 0.825928 0.000000
0.560883 0.825104 0.000000
0.602417 0.823669 0.000000
0.642242 0.822235 0.000000
0.680908 0.820709 0.000000
0.718231 0.819122 0.000000
0.754547 0.817566 0.000000
0.789948 0.815887 0.000000
0.824402 0.814056 0.000000
0.858185 0.812317 0.000000
0.890503 0.809662 0.000000
0.918365 0.803345 0.000000
0.938538 0.790710 0.000000
0.959198 0.779358 0.000000
0.976379 0.769165 0.000000
0.982300 0.759766 0.000000
0.988190 0.750916 0.000000
0.994110 0.742157 0.000000
1.000000 0.732727 0.000000
0.000000 0.863434 0.000000
0.005707 0.863403 0.000000
0.011353 0.863342 0.000000
0.059601 0.863129 0.000000
0.118530 0.862885 0.000000
0.164795 0.862549 0.000000
0.208221 0.862122 0.000000
0.250916 0.861633 0.000000
0.293823 0.861115 0.000000
0.336670 0.860443 0.000000
0.379730 0.859863 0.000000
0.423309 0.859070 0.000000
0.467285 0.858307 0.000000
0.512024 0.857452 0.000000
0.555450 0.856598 0.000000
0.597443 0.855499 0.000000
0.637360 0.854065 0.000000
0.676025 0.852600 0.000000
0.713470 0.850983 0.000000
0.749786 0.849365 0.000000
0.785095 0.847656 0.000000
0.819702 0.845856 0.000000
0.853424 0.844086 0.000000
0.886536 0.842255 0.000000
0.918365 0.839691 0.000000
0.945374 0.833038 0.000000
0.965485 0.820618 0.000000
0.976379 0.808899 0.000000
0.982300 0.798157 0.000000
0.988190 0.787842 0.000000
0.994110 0.777740 0.000000
1.000000 0.767029 0.000000
0.000000 0.893402 0.000000
0.005707 0.893311 0.000000
0.011353 0.893250 0.000000
0.021912 0.893097 0.000000
0.109772 0.892853 0.000000
0.157959 0.892487 0.000000
0.202362 0.892059 0.000000
0.245667 0.891571 0.000000
0.288269 0.891022 0.000000
0.331116 0.890320 0.000000
0.374146 0.889679 0.000000
0.417358 0.888885 0.000000
0.461243 0.888092 0.000000
0.505676 0.887177 0.000000
0.549255 0.886292 0.000000
0.591339 0.885284 0.000000
0.631561 0.884003 0.000000
0.670227 0.882507 0.000000
0.707611 0.880951 0.000000
0.743958 0.879333 0.000000
0.779297 0.877655 0.000000
0.813812 0.875854 0.000000
0.847473 0.874115 0.000000
0.880554 0.872192 0.000000
0.913055 0.870300 0.000000
0.944672 0.868011 0.000000
0.969971 0.860168 0.000000
0.976379 0.848083 0.000000
0.982300 0.835846 0.000000
0.988190 0.824188 0.000000
0.994110 0.812714 0.000000
1.000000 0.800781 0.000000
0.000000 0.921478 0.000000
0.005707 0.921417 0.000000
0.011353 0.921356 0.000000
0.016968 0.921173 0.000000
0.100800 0.920929 0.000000
0.151428 0.920563 0.000000
0.196381 0.920166 0.000000
0.239685 0.919647 0.000000
0.282532 0.919098 0.000000
0.325287 0.918427 0.000000
0.367950 0.917725 0.000000
0.411346 0.916931 0.000000
0.454865 0.916077 0.000000
0.498871 0.915161 0.000000
0.542450 0.914215 0.000000
0.584412 0.913208 0.000000
0.624756 0.912079 0.000000
0.663391 0.910614 0.000000
0.700806 0.909027 0.000000
0.737061 0.907410 0.000000
0.772369 0.905731 0.000000
0.806854 0.903931 0.000000
0.840454 0.902100 0.000000
0.873352 0.900238 0.000000
0.905731 0.898285 0.000000
0.937592 0.896301 0.000000
0.968994 0.894257 0.000000
0.976379 0.885193 0.000000
0.982300 0.872955 0.000000
0.988190 0.859985 0.000000
0.994110 0.847015 0.000000
1.000000 0.833862 0.000000
0.000000 0.947815 0.000000
0.005707 0.947784 0.000000
0.011353 0.947693 0.000000
0.016968 0.947510 0.000000
0.089630 0.947205 0.000000
0.144348 0.946869 0.000000
0.189758 0.946472 0.000000
0.233704 0.945953 0.000000
0.276489 0.945374 0.000000
0.318787 0.944702 0.000000
0.361542 0.943939 0.000000
0.404358 0.943146 0.000000
0.447571 0.942230 0.000000
0.491241 0.941315 0.000000
0.534821 0.940247 0.000000
0.576569 0.939178 0.000000
0.616882 0.938019 0.000000
0.655640 0.936676 0.000000
0.693054 0.935120 0.000000
0.729156 0.933472 0.000000
0.764343 0.931732 0.000000
0.798706 0.929962 0.000000
0.832153 0.928131 0.000000
0.864929 0.926178 0.000000
0.897064 0.924194 0.000000
0.928711 0.922150 0.000000
0.959900 0.920044 0.000000
0.976379 0.917816 0.000000
0.982300 0.907990 0.000000
0.988190 0.894958 0.000000
0.994110 0.880707 0.000000
1.000000 0.866455 0.000000
0.000000 0.969299 0.000000
0.005707 0.969299 0.000000
0.011353 0.969299 0.000000
0.016968 0.969299 0.000000
0.079102 0.969299 0.000000
0.136993 0.969299 0.000000
0.183411 0.969299 0.000000
0.227356 0.969299 0.000000
0.269897 0.969299 0.000000
0.312195 0.968933 0.000000
0.354462 0.968140 0.000000
0.396881 0.967285 0.000000
0.439758 0.966339 0.000000
0.482910 0.965363 0.000000
0.526215 0.964264 0.000000
0.567902 0.963104 0.000000
0.608154 0.961884 0.000000
0.646820 0.960571 0.000000
0.684052 0.959045 0.000000
0.720123 0.957397 0.000000
0.755157 0.955658 0.000000
0.789276 0.953766 0.000000
0.822601 0.951874 0.000000
0.855164 0.949921 0.000000
0.887085 0.947845 0.000000
0.918396 0.945709 0.000000
0.949280 0.943542 0.000000
0.976379 0.941284 0.000000
0.982300 0.938812 0.000000
0.988190 0.928040 0.000000
0.994110 0.913757 0.000000
1.000000 0.898438 0.000000
0.000000 0.975433 0.000000
0.005707 0.975433 0.000000
0.011353 0.975433 0.000000
0.016968 0.975433 0.000000
0.063965 0.975433 0.000000
0.128967 0.975433 0.000000
0.176605 0.975433 0.000000
0.220551 0.975433 0.000000
0.263000 0.975433 0.000000
0.305237 0.975433 0.000000
0.346863 0.975433 0.000000
0.388977 0.975433 0.000000
0.431152 0.975433 0.000000
0.473663 0.975433 0.000000
0.516632 0.975433 0.000000
0.558228 0.975433 0.000000
0.598297 0.975433 0.000000
0.636841 0.975433 0.000000
